resources/haticons/SVG/laptop_chromebook.svg

<!-- Generated by IcoMoon.io -->
<svg version="1.1" xmlns="http://www.w3.org/2000/svg" width="24" height="24" viewBox="0 0 24 24">
<title>laptop_chromebook</title>
<path d="M20.016 15v-9.984h-16.031v9.984h16.031zM14.016 18v-0.984h-4.031v0.984h4.031zM21.984 18h2.016v2.016h-24v-2.016h2.016v-15h19.969v15z"></path>
</svg>

<svg xmlns="http://www.w3.org/2000/svg" width="24" height="24"><path d="M20.016 15V5.016H3.985V15h16.031zm-6 3v-.984H9.985V18h4.031zm7.968 0H24v2.016H0V18h2.016V3h19.969v15z"/></svg>
